X:1286
T:Beauty Spot, The
R:reel
H:See also #421, #465
D:Fisherstreet
Z:id:hn-reel-630
M:C|
K:Dmix
~A3G A2dB|~c3G EG~G2|A2GB A2dB|~c3G ED~D2|
~A3G A2dB|~c3G EG~G2|~A3c ~B3d|~c3G ED~D2:|
|:ed~d2 edcd|ed~d2 efg2|ed~d2 edcB|ABcd ed~d2|
e2dg edcd|ed~d2 efg2|afge fded|ABcd ed~d2:|


